svg/US/CA.svg

<?xml version="1.0" encoding="UTF-8" standalone="no"?>
<svg width="90px" height="65px" viewBox="0 0 90 65" version="1.1" xmlns="http://www.w3.org/2000/svg" xmlns:xlink="http://www.w3.org/1999/xlink">
    <!-- Generator: Sketch 3.7.2 (28276) - http://www.bohemiancoding.com/sketch -->
    <title>California</title>
    <desc>Created with Sketch.</desc>
    <defs></defs>
    <g id="Page-1" stroke="none" stroke-width="1" fill="none" fill-rule="evenodd">
        <g id="California">
            <g id="Page-1">
                <path d="M90,51 L0,51 L0,10 C0,4.477 4.477,0 10,0 L80,0 C85.523,0 90,4.477 90,10 L90,51 Z" id="Fill-1" fill="#F1F2F2"></path>
                <path d="M90,51 L0,51 L0,55 C0,60.523 4.477,65 10,65 L80,65 C85.523,65 90,60.523 90,55 L90,51 Z" id="Fill-3" fill="#CF1B2B"></path>
                <polygon id="Fill-5" fill="#CF1B2B" points="15.4721 5.2976 17.0001 9.9996 21.9441 9.9996 17.9441 12.9066 19.4721 17.6086 15.4721 14.7026 11.4721 17.6086 13.0001 12.9066 9.0001 9.9996 13.9441 9.9996"></polygon>
                <path d="M17.0875,39 C17.0875,31.99 73.6765,31.99 73.6765,39 L17.0875,39 Z" id="Fill-7" fill="#008542"></path>
                <path d="M30.8044,30.1021 C32.1304,28.4831 33.8364,27.4661 36.0624,27.2711 C35.6574,29.6981 34.4444,32.1241 32.4224,34.5511 C31.0744,34.6861 30.2654,35.0901 29.9954,35.7641 C31.5564,36.7401 33.3744,36.9461 35.6574,35.7641 C37.7064,34.2031 39.6284,32.3851 41.3204,30.1021 L44.9604,33.7421 C43.7424,33.6891 42.8994,34.0451 42.9384,35.3601 L46.1734,35.3601 L48.1954,32.9331 L46.9824,29.2931 C46.9824,29.2931 48.3474,29.6981 50.6224,29.6981 C50.6224,31.0631 50.6224,32.4281 51.0274,33.7421 L50.6224,34.5511 C50.6224,34.5511 48.8534,34.1971 48.1954,35.3601 C48.1954,36.4381 53.4534,36.4381 53.4534,35.3601 C54.7074,33.4001 56.3674,31.9721 58.3074,30.9111 C59.1164,32.7981 60.4644,33.6071 62.3514,33.3381 L63.1604,34.1461 C61.8124,34.2811 61.0034,34.6861 60.7334,35.3601 C60.8454,36.6991 65.6984,36.2941 65.5874,34.9551 L65.5874,32.9331 C64.7044,31.0731 64.0134,28.8171 63.5644,26.0571 C61.9644,17.9261 56.3114,15.2651 46.9824,17.5641 C42.3204,15.2891 38.2994,15.1811 35.2534,18.3731 C33.7514,18.5271 32.3554,19.1331 31.2084,20.8001 C30.4574,19.6051 29.7604,19.4211 29.1864,21.6091 C28.1084,20.2601 27.5684,20.5301 27.5684,22.4171 C26.2604,23.2391 25.3274,24.1111 26.3554,25.2491 L24.3334,27.6751 L25.9514,28.8891 L27.9734,27.6751 L26.7604,29.6981 L27.5684,30.1021 C29.1864,29.0231 30.2654,29.0231 30.8044,30.1021" id="Fill-9" fill="#594529"></path>
                <path d="M46,46 L76,46 L76,41 L46,41 L46,46 Z M14,46 L44,46 L44,41 L14,41 L14,46 Z" id="Fill-11" fill-opacity="0.5" fill="#594529"></path>
            </g>
        </g>
    </g>
</svg>

<svg width="90" height="65" viewBox="0 0 90 65" xmlns="http://www.w3.org/2000/svg"><title>California</title><g fill="none" fill-rule="evenodd"><path d="M90 51H0V10C0 4.477 4.477 0 10 0h70c5.523 0 10 4.477 10 10v41z" fill="#F1F2F2"/><path d="M90 51H0v4c0 5.523 4.477 10 10 10h70c5.523 0 10-4.477 10-10v-4zM15.472 5.298L17 10h4.944l-4 2.907 1.528 4.702-4-2.906-4 2.906L13 12.907 9 10h4.944z" fill="#CF1B2B"/><path d="M17.087 39c0-7.01 56.59-7.01 56.59 0h-56.59z" fill="#008542"/><path d="M30.804 30.102c1.326-1.619 3.032-2.636 5.258-2.83-.405 2.426-1.618 4.852-3.64 7.28-1.348.134-2.157.538-2.427 1.212 1.561.976 3.38 1.182 5.662 0 2.05-1.56 3.971-3.379 5.663-5.662l3.64 3.64c-1.218-.053-2.06.303-2.022 1.618h3.235l2.022-2.427-1.213-3.64s1.365.405 3.64.405c0 1.365 0 2.73.405 4.044l-.405.81s-1.769-.355-2.427.808c0 1.078 5.258 1.078 5.258 0 1.254-1.96 2.914-3.388 4.854-4.449.81 1.887 2.157 2.696 4.044 2.427l.81.808c-1.349.135-2.158.54-2.428 1.214.112 1.34 4.965.934 4.854-.405v-2.022c-.883-1.86-1.574-4.116-2.023-6.876-1.6-8.13-7.253-10.792-16.582-8.493-4.662-2.275-8.683-2.383-11.729.81-1.502.153-2.898.76-4.045 2.426-.75-1.195-1.448-1.379-2.022.81-1.078-1.35-1.618-1.08-1.618.807-1.308.822-2.24 1.694-1.213 2.832l-2.022 2.426 1.618 1.214 2.022-1.214-1.213 2.023.808.404c1.618-1.079 2.697-1.079 3.236 0" fill="#594529"/><path d="M46 46h30v-5H46v5zm-32 0h30v-5H14v5z" fill-opacity=".5" fill="#594529"/></g></svg>
